icons/svg/add-rhombus.svg

<svg width="24" height="24" viewBox="0 0 24 24" fill="none" xmlns="http://www.w3.org/2000/svg">
<path d="M3.77486 14.4749C2.40803 13.1081 2.40803 10.892 3.77486 9.52518L9.52511 3.77492C10.8919 2.40809 13.108 2.40809 14.4749 3.77492L20.2251 9.52517C21.5919 10.892 21.5919 13.1081 20.2251 14.4749L14.4749 20.2252C13.108 21.592 10.8919 21.592 9.52511 20.2252L3.77486 14.4749Z" stroke="currentColor" stroke-width="1.5" stroke-linecap="round" stroke-linejoin="round"/>
<path d="M8.25 12H12M12 12L15.75 12M12 12V8.25M12 12L12 15.75" stroke="currentColor" stroke-width="1.5" stroke-linecap="round" stroke-linejoin="round"/>
</svg>

<svg xmlns="http://www.w3.org/2000/svg" width="24" height="24" fill="none" viewBox="0 0 24 24"><path stroke="currentColor" stroke-linecap="round" stroke-linejoin="round" stroke-width="1.5" d="M3.775 14.475a3.5 3.5 0 0 1 0-4.95l5.75-5.75a3.5 3.5 0 0 1 4.95 0l5.75 5.75a3.5 3.5 0 0 1 0 4.95l-5.75 5.75a3.5 3.5 0 0 1-4.95 0zM8.25 12H12m0 0h3.75M12 12V8.25M12 12v3.75"/></svg>
